32x32/apps/gnome-subtitles.svg

<svg height="32" width="32" xmlns="http://www.w3.org/2000/svg"><path d="m3.556 4c-.862 0-1.556.888-1.556 1.75v17.5c0 .862.694 1.717 1.556 1.75h12.944l3.5 4 3.5-4h4.944c.862 0 1.556-.888 1.556-1.75v-17.5" fill="#2e8163"/><path d="m10 10v-1h12v1zm0 3v-1h12v1zm0 3v-1h12v1zm0 3v-1h8v1z" fill="#f4f4f7"/><path d="m2 23.25v1c0 .862.694 1.717 1.555 1.75h12.945l3.5 4 3.5-4h4.945c.862 0 1.555-.888 1.555-1.75v-1c0 .862-.693 1.75-1.555 1.75h-4.945l-3.5 4-3.5-4h-12.945c-.862-.033-1.556-.888-1.556-1.75z" opacity=".2"/><path d="m3.555 4c-.862 0-1.555.888-1.555 1.75v1c0-.862.693-1.75 1.555-1.75h24.89c.862 0 1.555.888 1.555 1.75v-1c0-.862-.693-1.75-1.555-1.75z" fill="#fff" opacity=".1"/><path d="m10 11v-1h12v1zm0 3v-1h12v1zm0 3v-1h12v1zm0 3v-1h8v1z" opacity=".2"/></svg>

<svg xmlns="http://www.w3.org/2000/svg" width="32" height="32" version="1"><path fill="#2e8163" d="M3.556 4C2.694 4 2 4.888 2 5.75v17.5c0 .862.694 1.717 1.556 1.75H16.5l3.5 4 3.5-4h4.944c.862 0 1.556-.888 1.556-1.75V5.75C30 4.888 29.306 4 28.8b9cbe 4z"/><g fill="#f4f4f7"><path d="M10 10V9h12v1zM10 13v-1h12v1zM10 16v-1h12v1zM10 19v-1h8v1z"/></g><path opacity=".2" d="M2 23.25v1c0 .862.694 1.717 1.555 1.75H16.5l3.5 4 3.5-4h4.945c.862 0 1.555-.888 1.555-1.75v-1c0 .862-.693 1.75-1.555 1.75H23.5L20 29l-3.5-4H3.555c-.862-.033-1.556-.888-1.556-1.75z"/><path fill="#fff" opacity=".1" d="M3.555 4C2.693 4 2 4.888 2 5.75v1C2 5.888 2.693 5 3.555 5h24.89C29.307 5 30 5.888 30 6.75v-1C30 4.888 29.307 4 28.445 4H3.555z"/><g opacity=".2"><path d="M10 11v-1h12v1zM10 14v-1h12v1zM10 17v-1h12v1zM10 20v-1h8v1z"/></g></svg>
